X: 224
P: Longways for as many as will
M: 6/4
L: 1/4
K: C
g |\
e>dc dcB | c2c c>de | c2c c>de | d2d d2g |\
e>dc dcB | c2c c>ef | ^fdg g>a^f | g3- g2 |]
d |\
dec c>dB | c3- c2 |]

